X:4
T:Hemiolas #1
R:Jig
O:New Zealand
M:6/8
I:speed 450
C:Mark Fitzsimons
A:Auckland
K:G
|:"G" gdd edd|gdd edd|"Ano3rd"^c2 =c2 B2|"D7"ABc def|
"G" gdd edd|B2 =c2 ^c2|"G"ded "a"cBA|"D"FGA "G"G3:|
|:"G"B,CD EDC|B,CD EDC|"d"=F2 E2 D2|"C"GAG EDC|
"G"B,CD EDC|D2 E2 =F2|"d"DED CB,A,|"D"B,CA, "G" G,3:|
W:
W:Copyright Mark Fitzsimons August 1997
W:mark@greenmanhumming.com
